X: 15574
T: Glory In The Meeting House
R: barndance
M: 4/4
K: Dmixolydian
D2d2 dcAG|Acd2 dcAF|D2d2 dcAF|GAGF- FGEF|
D2d2 dcAG|Acd2 d2de|=fedc A2G^F|GAGF DECD:|
|:DEFG AcAG|FAGF DECD|DEFG AcAG|F2D2 G4|
DEFG AcAG|FAGF DECD|DEFG AcAG|F2D2 D4:|

